images/twitter.svg

<svg width="22" height="17" viewBox="0 0 22 17" fill="none" xmlns="http://www.w3.org/2000/svg">
<path d="M19.4213 2.69303C20.4088 2.11554 21.0626 1.32731 21.3828 0.324841C20.4809 0.789524 19.5131 1.12719 18.5095 1.32731C17.6504 0.447093 16.5626 0 15.2586 0C13.9839 0 12.9072 0.426135 12.0284 1.25512C11.6041 1.64878 11.2686 2.12083 11.0424 2.64237C10.8163 3.1639 10.7044 3.72393 10.7134 4.28813C10.7134 4.6479 10.7611 4.96925 10.8564 5.2417C7.09705 5.11944 3.98545 3.63379 1.5338 0.774262C1.11827 1.47401 0.910505 2.18656 0.910505 2.92357C0.910505 4.43833 1.58147 5.63872 2.92095 6.5201C2.1571 6.45839 1.4837 6.27443 0.910505 5.97288C0.910505 7.05452 1.24415 7.95802 1.91267 8.75324C2.56207 9.52812 3.47725 10.0603 4.49753 10.2564C4.11622 10.3495 3.71413 10.3937 3.30104 10.3937C2.91973 10.3937 2.64963 10.3635 2.48953 10.2971C2.77062 11.1785 3.30104 11.8934 4.06733 12.4406C4.82487 12.9886 5.74635 13.2917 6.69741 13.3057C5.0695 14.5224 3.20816 15.1243 1.10238 15.1243C0.586634 15.1243 0.22121 15.1173 0 15.0801C2.074 16.3631 4.38265 17 6.93695 17C9.55114 17 11.861 16.3689 13.8715 15.1068C15.8819 13.8517 17.3656 12.3032 18.3189 10.4799C19.2616 8.71564 19.7524 6.76381 19.7512 4.78412V4.23923C20.6299 3.62206 21.3906 2.86548 22 2.0026C21.177 2.34242 20.3096 2.57467 19.4213 2.69303Z" fill="#4F4F4F"/>
</svg>

<svg width="22" height="17" fill="none" xmlns="http://www.w3.org/2000/svg"><path d="M19.421 2.693c.988-.577 1.642-1.366 1.962-2.368a10.95 10.95 0 01-2.873 1.002C17.65.447 16.563 0 15.258 0c-1.275 0-2.352.426-3.23 1.255-.425.394-.76.866-.987 1.387a3.975 3.975 0 00-.329 1.646c0 .36.048.681.143.954-3.759-.123-6.87-1.608-9.322-4.468-.416.7-.623 1.413-.623 2.15 0 1.514.67 2.715 2.01 3.596-.764-.062-1.437-.246-2.01-.547 0 1.082.333 1.985 1.002 2.78a4.468 4.468 0 002.585 1.503 5.047 5.047 0 01-1.197.138c-.381 0-.651-.03-.811-.097a4.12 4.12 0 001.577 2.144 4.607 4.607 0 002.63.865c-1.628 1.216-3.489 1.818-5.595 1.818-.515 0-.88-.007-1.102-.044C2.074 16.363 4.383 17 6.937 17c2.614 0 4.924-.631 6.934-1.893 2.01-1.255 3.495-2.804 4.448-4.627a12.06 12.06 0 001.432-5.696V4.24A9.277 9.277 0 0022 2.003c-.823.34-1.69.572-2.579.69z" fill="#4F4F4F"/></svg>
